X:24
T:Morrison's Jig
M:6/8
K:EDor
L:1/8
E3 B3|EBE AFD|E3 B3|dcB AFD|\
E3 B3|EBE AFD|G3 FGA|dAG FED :|
Bee fee|aee fee|Bee fee|fag fed|\
Bee fee|aee fee|gec d2 A|BAG FED|
Bee fee|aee fee|Bee fee|faf def|\
g3 gfe|def g2 f|edc d2 A|BAG FED |>|
